!!!COM: Ludwig van Beethoven
!!!CNT: Deutsch
!!!TXO: Deutsch
!!!OTL: "An die Hoffnung"
!!!LYR: Tiedge, Cristoph August
!!!OPS: Op. 32
!!!ENC: Amanda Harris
!!!YOR: Sa2mtliche Lieder, Band 1
!!!YOR: G. Henle Verlag
!!!ODT: 1804/
!!NB: Vocal melody and text encoded.
**kern	**silbe
*clefG2	*
*k[b-e-a-]	*
*M3/4	*
*MM[poco adagio]	*
=4	=4
4r	.
8.r	.
{16g	{Die
8g	du
8a-	so
=5	=5
4.b-	gern
8b-	in
8a-	heil'-
8g	-gen
=6	=6
2f	Na2ch-
4g	-ten
=7	=7
4g	fei-
8a-}	-erst}
16r	.
{16cc	{und
8a-	sanft
8f	und
=8	=8
8d	weich
8e-	den
[4f	Gram
12f]	|
12g	|
12a-	ver-
=9	=9
4a-	-schlei-
8g}	-erst,}
16r	.
{16g	{der
8an	ei-
8bn	-ne
=10	=10
2cc	zar
4dd	-te
=11	=11
4.ee-	See-
16ff	|
16ee-	|
8dd	|
8cc	-le
=12	=12
4cc	qua2lt,
8bn}	|}
8r	.
4r	.
=14	=14
4r	.
4r	.
{4g	{o
=15	=15
4.een	Hoff-
8een	-nung,
8dd	lass,
8cc	durch
=16	=16
4cc	dich
8bn	|
16r	.
16bn	em-
12bn	-por-
12cc	|
12dd	-ge-
=17	=17
4dd	-ho-
8een	-ben,
8ee-	den
8ee-	Dul-
8ee-	-der
=18	=18
4.ee-	ah-
8ee-	-nen,
8.ee-	dass
16ee-	dort
=19	=19
4ff	o-
8ee-}	-ben}
16r	.
{16ee-	{ein
8dd	En-
8cc	-gel
=20	=20
4.b-	sei-
16cc	|
16b-	|
8a-	-ne
8g	|
=21	=21
2f	Tra2-
4b-	-nen
=22	=22
4an}	za2hlt!}
4r	.
4r	.
=23	=23
4r	.
4r	.
{8.e-	{O
16b-	|
=24	=24
4.an	Hoff-
8an	-nung,
8an	lass,
8b-	durch
=25	=25
4.cc	dich
8cc	em-
12cc	-por-
12dd	|
12ee-	-ge-
=26	=26
4ee-	-ho
8dd}	-ben,}
16r	.
{16dd-	{den
8dd-	Dul-
8dd-	-dr
=27	=27
4.cc	ah-
8cc	-nen,
8cc	dass
8cc	dort
=28	=28
4ddn	o-
8ee-	-ben
16r	.
16ee-	ein
8dd	En-
8cc	-gel
=29	=29
4.b-	sei-
16ee-	|
16dd	|
16cc	|
16b-	|
16a-	-ne
16g	|
=30	=30
2f	Tra2-
4b-	-nen
=31	=31
4e-}	za2hlt!}
4r	.
4r	.
*-	*-
